!!!COM: Music21
!!!OTL: Valse de Taramundi
!!!OMV: pezas_valses_valse-de-taramundi_valse-de-taramundi-partitura.musicxml
**kern
*I"Bagpipes
*I'Bag
*clefG^2
*k[]
*M3/4
=1
!LO:TX:a:t=Presto
*MM184
!LO:TX:a:t=[quarter]=184
2cc
4dd
=
4ee
4ee
4ee
=
4ee
4dd
4ee
=
2.ff
=
2b
4cc
=
4dd
4dd
4dd
=
4dd
4cc
4dd
=
2.ee
=
2cc
4dd
=
4ee
4ee
4ee
=
4ee
4dd
4ee
=
2ff
4gg
!!linebreak:original
=
4ee
4ee
4ff
!!linebreak:original
=
4dd
4dd
4ee
=
2.cc
=
2cc
4dd
=||
*M3/4
!LO:TX:a:t=Presto
*MM184
!LO:TX:a:t=[quarter]=184
2cc
4dd
=
4ee
4ee
4ee
=
4ee
4dd
4ee
=
2.ff
=
2b
4cc
=
4dd
4dd
4dd
=
4dd
4cc
4dd
=
2.ee
=
2cc
4dd
!!linebreak:original
=
4ee
4ee
4ee
=
4ee
4dd
4ee
=
2ff
4gg
=
4ee
4ee
4ff
!!linebreak:original
=
4dd
4dd
4ee
=
2cc
4gg
=||
4gg
4aa
4bb
=
2ccc
4gg
=
4ff
4gg
4aa
=
2bb
4gg
=
4dd
4ee
4ff
=
4aa
4gg
4ff
=
4ff
4ee
4ff
=
2gg
4gg
=
4gg
4aa
4bb
!!linebreak:original
=
2ccc
4gg
=
4ff
4gg
4aa
=
2bb
4gg
=
4dd
4ee
4ff
=
4aa
4gg
4ff
=
4ff
4ee
4dd
=
2cc
4gg
=||
4gg
4aa
4bb
=
2ccc
4gg
=
4ff
4gg
4aa
=
2bb
4gg
=
4dd
4ee
4ff
!!linebreak:original
=
4aa
4gg
4ff
=
4ff
4ee
4ff
=
2gg
4gg
=
4gg
4aa
4bb
!!linebreak:original
=
2ccc
4gg
=
4ff
4gg
4aa
=
2bb
4gg
=
4dd
4ee
4ff
=
4aa
4gg
4ff
=
4ff
4ee
4dd
=
2.cc
==
*-
